X:1
T:The Convict Maid
M:3/4
L:1/8
K:F
 C| FF F3/2- G/2A-F| DD D2 zE/2-F/2| GG G3/2 F/2 EG| CC C2 zc/2-B/2|\
 AB c2A-c| BB B2 z G| GB G3/2 F/2 EG| FF F3||
